public/images/icons/copy.svg

<svg xmlns="http://www.w3.org/2000/svg" width="16" height="16" fill="none" viewBox="0 0 16 16">
  <g clip-path="url(#a)">
    <path fill="#8B8EA0" fill-rule="evenodd" d="M14 9V3c0-.55-.45-1-1-1H7c-.55 0-1 .45-1 1v6c0 .55.45 1 1 1h6c.55 0 1-.45 1-1Zm-1 0H7V3h6v6Zm-6.5 2C5.68 11 5 10.33 5 9.5V6H3c-.55 0-1 .45-1 1v6c0 .55.45 1 1 1h6c.55 0 1-.45 1-1v-2H6.5Z" clip-rule="evenodd"/>
  </g>
  <defs>
    <clipPath id="a">
      <path fill="#fff" d="M0 0h16v16H0z"/>
    </clipPath>
  </defs>
</svg>

<svg width="16" height="16" viewBox="0 0 16 16" fill="none" xmlns="http://www.w3.org/2000/svg">
<g id="icon-flat-copy" clip-path="url(#clip0_637_8474)">
<path id="swap-stroke" fill-rule="evenodd" clip-rule="evenodd" d="M14 9V3C14 2.45 13.55 2 13 2H7C6.45 2 6 2.45 6 3V9C6 9.55 6.45 10 7 10H13C13.55 10 14 9.55 14 9ZM13 9H7V3H13V9ZM6.5 11C5.68 11 5 10.33 5 9.5V6H3C2.45 6 2 6.45 2 7V13C2 13.55 2.45 14 3 14H9C9.55 14 10 13.55 10 13V11H6.5Z" fill="#8B8EA0"/>
</g>
<defs>
<clipPath id="clip0_637_8474">
<rect width="16" height="16" fill="white"/>
</clipPath>
</defs>
</svg>
